src/assets/skills_figma.svg

<?xml version="1.0" encoding="utf-8"?><!-- Uploaded to: SVG Repo, www.svgrepo.com, Generator: SVG Repo Mixer Tools -->
<svg width="800px" height="800px" viewBox="0 0 24 24" fill="none" xmlns="http://www.w3.org/2000/svg">
<path d="M12 3H9C7.34315 3 6 4.34315 6 6C6 7.65685 7.34315 9 9 9M12 3V9M12 3H15C16.6569 3 18 4.34315 18 6C18 7.65685 16.6569 9 15 9M12 9H9M12 9H15M12 9V15M9 9C7.34315 9 6 10.3431 6 12C6 13.6569 7.34315 15 9 15M15 9C16.6569 9 18 10.3431 18 12C18 13.6569 16.6569 15 15 15C13.3431 15 12 13.6569 12 12C12 10.3431 13.3431 9 15 9ZM12 15H9M12 15V18C12 19.6569 10.6569 21 9 21C7.34315 21 6 19.6569 6 18C6 16.3431 7.34315 15 9 15" stroke="#3fbac2" stroke-width="2" stroke-linecap="round" stroke-linejoin="round"/>
</svg>

<!-- Uploaded to: SVG Repo, www.svgrepo.com, Generator: SVG Repo Mixer Tools -->
<svg xmlns="http://www.w3.org/2000/svg" fill="none" viewBox="0 0 24 24">
  <path stroke="#3fbac2" stroke-linecap="round" stroke-linejoin="round" stroke-width="2" d="M12 3H9a3 3 0 0 0 0 6m3-6v6m0-6h3a3 3 0 1 1 0 6m-3 0H9m3 0h3m-3 0v6M9 9a3 3 0 1 0 0 6m6-6a3 3 0 1 1 0 6 3 3 0 0 1 0-6Zm-3 6H9m3 0v3a3 3 0 1 1-3-3"/>
</svg>
